X: 1
T: Tom Connor's
R: jig
M: 6/8
L: 1/8
K: Dmaj
|:B|ABA A2D|FAd ~f3|efe ede|gfe dcB|
ABA A2D|FAd ~f3|efe gfe|d3 d2:|
|:B|Add dcd|ecA A2G|Fdd dcd|ecA A2g|
f/g/af g2d|B2e dcB|ABA GFE|D3 D2:|

